svg/mono/visa.svg

<?xml version="1.0" encoding="UTF-8" standalone="no"?>
<svg width="750px" height="471px" viewBox="0 0 750 471" version="1.1" xmlns="http://www.w3.org/2000/svg" xmlns:xlink="http://www.w3.org/1999/xlink" xmlns:sketch="http://www.bohemiancoding.com/sketch/ns">
    <!-- Generator: Sketch 3.3.1 (12005) - http://www.bohemiancoding.com/sketch -->
    <title>visa</title>
    <desc>Created with Sketch.</desc>
    <defs></defs>
    <g id="Page-1" stroke="none" stroke-width="1" fill="none" fill-rule="evenodd" sketch:type="MSPage">
        <g id="Visa" sketch:type="MSLayerGroup" fill="#393939">
            <path d="M0,40.0047706 C0,17.9107459 17.9143492,0 39.9919369,0 L710.008063,0 C732.095,0 750,17.9064659 750,40.0047706 L750,430.995229 C750,453.089254 732.085651,471 710.008063,471 L39.9919369,471 C17.905,471 0,453.093534 0,430.995229 L0,40.0047706 Z M277.6505,333.6295 L311.0115,137.8675 L364.3705,137.8675 L330.9865,333.6295 L277.6505,333.6295 Z M524.5125,142.6875 C513.9405,138.7215 497.3765,134.4655 476.6895,134.4655 C423.9655,134.4655 386.8255,161.0165 386.5095,199.0695 C386.2125,227.1985 413.0235,242.8905 433.2635,252.2545 C454.0325,261.8495 461.0155,267.9695 460.9165,276.5375 C460.7845,289.6595 444.3305,295.6545 428.9935,295.6545 C407.6365,295.6545 396.2905,292.6875 378.7675,285.3785 L371.8915,282.2665 L364.4025,326.0905 C376.8655,331.5545 399.9115,336.2895 423.8405,336.5345 C479.9295,336.5345 516.3415,310.2875 516.7555,269.6525 C516.9565,247.3835 502.7405,230.4355 471.9565,216.4645 C453.3055,207.4085 441.8835,201.3655 442.0045,192.1955 C442.0045,184.0585 451.6725,175.3575 472.5615,175.3575 C490.0105,175.0865 502.6495,178.8915 512.4975,182.8575 L517.2795,185.1165 L524.5125,142.6875 Z M661.3395,138.0545 L620.1085,138.0545 C607.3355,138.0545 597.7775,141.5405 592.1675,154.2885 L512.9225,333.6915 L568.9535,333.6915 C568.9535,333.6915 578.1155,309.5695 580.1875,304.2735 C586.3105,304.2735 640.7415,304.3575 648.5235,304.3575 C650.1195,311.2105 655.0155,333.6915 655.0155,333.6915 L704.5275,333.6915 L661.3395,138.0545 Z M175.088482,244.366797 C175.089488,244.370031 175.090494,244.373266 175.0915,244.3765 L180.6575,271.5055 L232.8975,138.0105 L289.4185,138.0105 L205.4145,333.3955 L148.9595,333.4605 L101.520801,163.434171 C85.1184477,154.339743 66.4024534,147.029038 45.4725,141.9625 L46.1535,137.8895 L132.1945,137.8895 C143.7835,138.3215 153.1515,142.0205 156.3815,154.4165 L175.088482,244.366796 Z M595.5425,264.2325 C599.9555,252.9535 616.8015,209.5095 616.8015,209.5095 C616.4865,210.0305 621.1815,198.1755 623.8765,190.8255 L627.4835,207.7035 C627.4835,207.7035 637.7005,254.4325 639.8355,264.2315 L595.5425,264.2315 L595.5425,264.2325 Z" id="Rectangle-1" sketch:type="MSShapeGroup"></path>
        </g>
    </g>
</svg>

<svg width="750" height="471" viewBox="0 0 750 471" xmlns="http://www.w3.org/2000/svg"><title>visa</title><path d="M0 40.005C0 17.91 17.914 0 39.992 0h670.016C732.095 0 750 17.906 750 40.005v390.99C750 453.09 732.086 471 710.008 471H39.992C17.905 471 0 453.094 0 430.995V40.005zm277.65 293.624l33.362-195.762h53.358L330.986 333.63h-53.335zm246.863-190.942c-10.572-3.966-27.137-8.222-47.824-8.222-52.724 0-89.864 26.552-90.18 64.605-.297 28.129 26.514 43.82 46.755 53.185 20.769 9.594 27.751 15.714 27.652 24.283-.132 13.121-16.586 19.116-31.923 19.116-21.356 0-32.702-2.966-50.226-10.276l-6.875-3.111-7.49 43.824c12.464 5.464 35.51 10.198 59.439 10.443 56.089 0 92.5-26.246 92.914-66.882.202-22.268-14.014-39.216-44.798-53.188-18.651-9.055-30.073-15.099-29.952-24.268 0-8.137 9.668-16.839 30.557-16.839 17.448-.27 30.087 3.535 39.935 7.5l4.783 2.26 7.233-42.43zm136.827-4.633h-41.231c-12.774 0-22.332 3.487-27.942 16.234l-79.245 179.404h56.031s9.163-24.123 11.235-29.418c6.123 0 60.553.084 68.336.084 1.596 6.853 6.491 29.334 6.491 29.334h49.513L661.34 138.054zM175.088 244.368l.004.01 5.565 27.128 52.24-133.494h56.522l-84.004 195.385-56.456.065-47.438-170.027c-16.403-9.094-35.119-16.405-56.049-21.471l.681-4.073h86.041c11.59.431 20.958 4.13 24.188 16.527l18.706 89.95zm420.455 19.866c4.413-11.28 21.259-54.724 21.259-54.724-.316.522 4.38-11.333 7.074-18.683l3.608 16.877s10.216 46.73 12.351 56.528h-44.293v.002z" fill="#393939" fill-rule="evenodd"/></svg>
